svg/set/BFZ/U.svg

<?xml version="1.0" encoding="utf-8"?>
<svg xmlns="http://www.w3.org/2000/svg" xmlns:xlink="http://www.w3.org/1999/xlink" version="1.1" baseProfile="basic" id="Layer_1" x="0px" y="0px" width="223px" height="300px">
  <g>
    <polygon points="-0.041,143.772 113.541,300 223.041,151.196 109.5,0  "/>
    <linearGradient id="SVGID_1_" gradientUnits="userSpaceOnUse" x1="27.002" y1="117.5127" x2="197.7993" y2="179.6779">
      <stop style="stop-color:#536e78" offset="0"/>
      <stop style="stop-color:#99aebc" offset="0.3"/>
      <stop style="stop-color:#d9eaf3" offset="0.5"/>
      <stop style="stop-color:#99aebc" offset="0.7"/>
      <stop style="stop-color:#536e78" offset="1"/>
    </linearGradient>
    <path fill="url(#SVGID_1_)" d="M105.705,202.419v-70.607l-37.199,41.037l-49.328-19.054l95.395,126.697l91.146-122.573   l-41.779-15.178L105.705,202.419z M19.096,139.236l41.779,15.177l58.07-59.306v70.648l37.406-41.449l49.285,19.095L110.242,16.704   L19.096,139.236z"/>
  </g>
</svg>

<?xml version="1.0" encoding="UTF-8" standalone="no"?>
<svg
   version="1.1"
   id="Layer_1"
   x="0px"
   y="0px"
   width="223.082"
   height="300"
   xmlns="http://www.w3.org/2000/svg"
   xmlns:svg="http://www.w3.org/2000/svg">
  <defs
     id="defs5" />
  <g
     id="g5"
     transform="translate(0.041)">
    <polygon
       points="223.041,151.196 109.5,0 -0.041,143.772 113.541,300 "
       id="polygon1" />
    <linearGradient
       id="SVGID_1_"
       gradientUnits="userSpaceOnUse"
       x1="27.002001"
       y1="117.5127"
       x2="197.7993"
       y2="179.6779">
      <stop
         style="stop-color:#536e78"
         offset="0"
         id="stop1" />
      <stop
         style="stop-color:#99aebc"
         offset="0.3"
         id="stop2" />
      <stop
         style="stop-color:#d9eaf3"
         offset="0.5"
         id="stop3" />
      <stop
         style="stop-color:#99aebc"
         offset="0.7"
         id="stop4" />
      <stop
         style="stop-color:#536e78"
         offset="1"
         id="stop5" />
    </linearGradient>
    <path
       fill="url(#SVGID_1_)"
       d="M 105.705,202.419 V 131.812 L 68.506,172.849 19.178,153.795 114.573,280.492 205.719,157.919 163.94,142.741 Z m -86.609,-63.183 41.779,15.177 58.07,-59.306 v 70.648 l 37.406,-41.449 49.285,19.095 -95.394,-126.697 z"
       id="path5"
       style="fill:url(#SVGID_1_)" />
  </g>
</svg>
